polaris-icons/icons/new-icons/EnableSelectionMinor.svg

<svg width="20" height="20" viewBox="0 0 20 20" fill="none" xmlns="http://www.w3.org/2000/svg">
<path d="M13.2803 8.78033C13.5732 8.48744 13.5732 8.01256 13.2803 7.71967C12.9874 7.42678 12.5126 7.42678 12.2197 7.71967L9.25 10.6893L8.03033 9.46967C7.73744 9.17678 7.26256 9.17678 6.96967 9.46967C6.67678 9.76256 6.67678 10.2374 6.96967 10.5303L8.71967 12.2803C9.01256 12.5732 9.48744 12.5732 9.78033 12.2803L13.2803 8.78033Z" fill="#4A4A4A"/>
<path fill-rule="evenodd" clip-rule="evenodd" d="M6.25 3.5C4.73122 3.5 3.5 4.73122 3.5 6.25V13.75C3.5 15.2688 4.73122 16.5 6.25 16.5H13.75C15.2688 16.5 16.5 15.2688 16.5 13.75V6.25C16.5 4.73122 15.2688 3.5 13.75 3.5H6.25ZM5 6.25C5 5.55964 5.55964 5 6.25 5H13.75C14.4404 5 15 5.55964 15 6.25V13.75C15 14.4404 14.4404 15 13.75 15H6.25C5.55964 15 5 14.4404 5 13.75V6.25Z" fill="#4A4A4A"/>
</svg>

<svg viewBox="0 0 20 20" xmlns="http://www.w3.org/2000/svg"><path d="M13.28 8.78a.75.75 0 0 0-1.06-1.06l-2.97 2.97-1.22-1.22a.75.75 0 0 0-1.06 1.06l1.75 1.75a.75.75 0 0 0 1.06 0l3.5-3.5Z" fill="#5C5F62"/><path fill-rule="evenodd" d="M6.25 3.5a2.75 2.75 0 0 0-2.75 2.75v7.5a2.75 2.75 0 0 0 2.75 2.75h7.5a2.75 2.75 0 0 0 2.75-2.75v-7.5a2.75 2.75 0 0 0-2.75-2.75h-7.5Zm-1.25 2.75c0-.69.56-1.25 1.25-1.25h7.5c.69 0 1.25.56 1.25 1.25v7.5c0 .69-.56 1.25-1.25 1.25h-7.5c-.69 0-1.25-.56-1.25-1.25v-7.5Z" fill="#5C5F62"/></svg>
